Adwaita++-Dark/actions/22/office-chart-tall-pie.svg

<svg height="22" width="22" xmlns="http://www.w3.org/2000/svg">
  <g fill="#e6ddff">
    <path d="m10 3.7207031a7.1428571 7.1428571 0 0 0 -7 7.1367189 7.1428571 7.1428571 0 0 0 7.142578 7.142578 7.1428571 7.1428571 0 0 0 4.900391-1.957031l-5.042969-5.042969z"/>
    <path d="m16.363962 17.363962-6.363962-6.363962 6.363962-6.36396c3.514718 3.5147176 3.514717 9.213204 0 12.727922z" opacity=".3"/>
    <path d="m10 3v8l5.65625-5.65625c-1.447714-1.447715-3.44711-2.34375-5.65625-2.34375z" opacity=".6"/>
  </g>
</svg>

<svg xmlns="http://www.w3.org/2000/svg" width="22" height="22" version="1">
 <path style="fill:#E6DDFF" d="M 10,3.7207031 A 7.1428571,7.1428571 0 0 0 3,10.857422 7.1428571,7.1428571 0 0 0 10.142578,18 7.1428571,7.1428571 0 0 0 15.042969,16.042969 L 10,11 Z"/>
 <path style="fill:#E6DDFF;opacity:0.3" d="M 16.363962,17.363962 10,11 16.363962,4.63604 c 3.514718,3.5147176 3.514717,9.213204 0,12.727922 z"/>
 <path style="fill:#E6DDFF;opacity:0.6" d="m 10,3 v 8 L 15.65625,5.34375 C 14.208536,3.896035 12.20914,3 10,3 Z"/>
</svg>
